X:0940
T:The bonny Green of Glasgow.
M:C
L:1/8
Q:1/2=104
I: :: ||
Z:Jack Campin * www.campin.me.uk * 2009
K:D
g|fe (f/g/a) A2A=c|BABd     ed`eg|fe  f/g/a A2A=c|BABc     d2 D:|
G|FA- AB/c/  dcBA |B/c/d AF Ee-eG|FA- AB/c/ dcBA |f/g/a ef d2 DG|
  FA  AB/c/  dcBA |B/c/d AF Ee`eg|fd``ge    fdge |Bgfe     d2 D|]
<end>
<start>
